packages/components/icon/src/assets/icons/checkbox-on.svg

<svg xmlns="http://www.w3.org/2000/svg" viewBox="0 0 24 24">
	<path fill="currentColor" fill-rule="evenodd" d="M5.43182 20.2273c-.3905 0-.72676-.141-1.00878-.4231C4.14101 19.5222 4 19.186 4 18.7955V5.43182c0-.3905.14101-.72676.42304-1.00878C4.70506 4.14101 5.04132 4 5.43182 4H18.7955c.3905 0 .7267.14101 1.0087.42304.2821.28202.4231.61828.4231 1.00878V18.7955c0 .3905-.141.7267-.4231 1.0087-.282.2821-.6182.4231-1.0087.4231H5.43182zm5.24998-7.1591l-1.90907-1.9091-1.43182 1.4318 3.34089 3.3409 6.2046-6.20453-1.4319-1.43182-4.7727 4.77275z" />
</svg>

<svg width="24" height="24" viewBox="0 0 24 24" fill="none" xmlns="http://www.w3.org/2000/svg">
<path fill-rule="evenodd" clip-rule="evenodd" d="M5.43182 20.2273C5.04132 20.2273 4.70506 20.0863 4.42304 19.8042C4.14101 19.5222 4 19.186 4 18.7955V5.43182C4 5.04132 4.14101 4.70506 4.42304 4.42304C4.70506 4.14101 5.04132 4 5.43182 4H18.7955C19.186 4 19.5222 4.14101 19.8042 4.42304C20.0863 4.70506 20.2273 5.04132 20.2273 5.43182V18.7955C20.2273 19.186 20.0863 19.5222 19.8042 19.8042C19.5222 20.0863 19.186 20.2273 18.7955 20.2273H5.43182ZM10.6818 13.0682L8.77273 11.1591L7.34091 12.5909L10.6818 15.9318L16.8864 9.72727L15.4545 8.29545L10.6818 13.0682Z" fill="currentColor"/>
</svg>
